X:4
T:Wragg’s Lesson the 10th.2voices. RH.004
R:march
S:Rev.R.Harrison’s MS,c1815,Cumbria
O:England
A:Temple Sowerby,Cumbria
Z:vmp.Simon Wilson. Review PJH, 2008.
M:C
L:1/8
Q:2/4=75
K:D
[V:1]|:A2|d2d>dd2e2|f2f>ff2g2|a3f (ba)(gf)|
e2e>ee2A2|d2d>dd2e2|f2f>ff2g2|a>bc’>d’f2e2|d2d>dd2:|
[V:2]|:z2|z4z2A2|d2d>dd2e2|f2d2(gf)(ed)|A2A>AA2z2|
z4z2A2|d2d>dd2e2|f2d2A2A2|F2F>FF2:|
%
[V:1]|:f>g|a2a>aa2(gf)|g2e>ee2(e>f)|g2g>gg2(fe)|
f2d>dd2A2|d2d>dd2e2|f2f>ff2g2|((3aba) ((3bag) f2e2|d2d>dd2:|
[V:2]|:d>e|f2f>ff2(ed)|e2A>AA2c>d|e2e>ee2(dc)|
d2F>FF2z2|z4z2A2|d2d>dd2e2|((3fgf) ((3gfe)d2A2|F2F>FF2:|

